X: 1
T: Hills Of New Zealand, The
M: 4/4
L: 1/8
R: reel
K: Gmaj
(3FGA|:B3 G cBAG|G3 DD3 G/A/|B3 G cBAG|A6 BB/A/|
G2 gg/f/ e4|dgdB c4|cBAG e d2 c/B/|1 A3 G G3G/A/:|2 A3 G G2 Bd||
e3 c gfed|d3 f/g/ d-d/c/ BG|c2 c/d/e d-d/c/ B-B/d/|A6 GG/F/|
E-E/D/ EF G3 G/A/|B2 B/A/G/F/ G3 A/B/|cBAG e d2 c/B/|A3 G G3 B/d/|
e2 aa/b/ gfed|d3 f/g/ d-d/c/ BG|c2 c/d/e d-d/c/ B-B/d/|A6 BB/A/|
G2 gg/f/ e4|dgdB c4|cBAG e d2 c/B/|1 A3 G G3 G/A/:|2 A3 G G4||
